src/icons/svg/browse.svg

<?xml version="1.0" standalone="no"?><!DOCTYPE svg PUBLIC "-//W3C//DTD SVG 1.1//EN" "http://www.w3.org/Graphics/SVG/1.1/DTD/svg11.dtd"><svg t="1557388887467" class="icon" style="" viewBox="0 0 1024 1024" version="1.1" xmlns="http://www.w3.org/2000/svg" p-id="3108" xmlns:xlink="http://www.w3.org/1999/xlink" width="128" height="128"><defs><style type="text/css"></style></defs><path d="M1012.444444 500.673015 1010.920636 498.133333C865.193651 280.838095 701.536508 170.666667 524.419049 170.666667 226.48889 170.666667 13.180952 497.498413 11.580952 500.673015 1.549206 520.152382 1.549206 540.8 11.580952 560.355556L13.866667 564.012698C175.568254 779.504762 338.514285 884.266667 512 884.266667 588.393651 884.266667 658.082539 863.263492 719.847618 831.568254 752.101587 815.034921 788.190477 793.701587 809.828572 774.653969 814.349205 770.641269 816.761905 763.682539 816.761905 756.825397 816.761905 742.780951 805.384128 731.428572 791.365079 731.428572 785.777777 731.428572 780.901587 733.612698 776.71111 736.634921 776.71111 736.634921 716.469841 777.371428 682.844444 793.244444 631.11111 817.726985 573.841269 833.447618 512 833.447618 356.114285 833.447618 206.958731 735.974603 56.025397 535.542857 54.323809 531.453969 54.526984 528.203174 56.533333 524.317461 58.260317 521.295238 256.812698 221.460317 524.419049 221.460317 683.174603 221.460317 832.304762 323.580952 967.796826 525.003174 968.380951 526.32381 968.71111 527.441269 968.914285 528.253969L966.679364 531.606349C949.942857 557.003174 879.009523 643.530159 871.314285 651.961905 863.619049 660.393651 860.419049 663.746031 860.419049 672.253969 860.419049 686.298413 871.796826 697.650795 885.815872 697.650795 893.079364 697.650795 898.793651 695.009523 904.177777 689.625397 909.561905 684.266667 990.907936 587.149205 1009.092064 559.568254L1009.879364 558.374603C1022.247618 544.07619 1023.339682 521.879364 1012.444444 500.673015L1012.444444 500.673015Z" p-id="3109"></path><path d="M393.498413 524.393651C393.498413 586.539682 448.88889 641.041269 512 641.041269 576.203174 641.041269 630.47619 587.606349 630.47619 524.393651 630.47619 461.180951 576.203174 407.796826 512 407.796826 448.88889 407.796826 393.498413 462.273015 393.498413 524.393651L393.498413 524.393651ZM579.682539 524.393651C579.682539 558.857143 547.403174 590.247618 512 590.247618 476.546031 590.247618 444.292064 558.857143 444.292064 524.393651 444.292064 489.955556 476.571428 458.590477 512 458.590477 547.428572 458.590477 579.682539 489.955556 579.682539 524.393651L579.682539 524.393651Z" p-id="3110"></path></svg>

<svg class="icon" viewBox="0 0 1024 1024" xmlns="http://www.w3.org/2000/svg" width="128" height="128"><defs><style/></defs><path d="M1012.444 500.673l-1.523-2.54C865.194 280.838 701.537 170.667 524.419 170.667c-297.93 0-511.238 326.831-512.838 330.006-10.032 19.48-10.032 40.127 0 59.683l2.286 3.657C175.568 779.505 338.514 884.267 512 884.267c76.394 0 146.083-21.004 207.848-52.699 32.254-16.533 68.342-37.866 89.98-56.914 4.521-4.013 6.934-10.971 6.934-17.829 0-14.044-11.378-25.396-25.397-25.396-5.587 0-10.463 2.184-14.654 5.206 0 0-60.241 40.736-93.867 56.61-51.733 24.482-109.003 40.203-170.844 40.203-155.886 0-305.041-97.473-455.975-297.905-1.701-4.089-1.498-7.34.508-11.226 1.727-3.022 200.28-302.857 467.886-302.857 158.756 0 307.886 102.121 443.378 303.543.584 1.32.914 2.438 1.117 3.251l-2.235 3.352c-16.736 25.397-87.67 111.924-95.365 120.356-7.695 8.432-10.895 11.784-10.895 20.292 0 14.044 11.378 25.397 25.397 25.397 7.263 0 12.978-2.641 18.362-8.026 5.384-5.358 86.73-102.476 104.914-130.057l.787-1.193c12.369-14.299 13.46-36.496 2.565-57.702z"/><path d="M393.498 524.394c0 62.146 55.39 116.647 118.502 116.647 64.203 0 118.476-53.435 118.476-116.647 0-63.213-54.273-116.597-118.476-116.597-63.111 0-118.502 54.476-118.502 116.597zm186.185 0c0 34.463-32.28 65.854-67.683 65.854-35.454 0-67.708-31.39-67.708-65.854 0-34.438 32.28-65.804 67.708-65.804 35.429 0 67.683 31.366 67.683 65.804z"/></svg>
